X:1
T:Missa "Au travail suis"
T:Missa "Au travail suis" -1 Kyrie Eleison
T:Johannes Ockeghem
T:Ed. Charles Weaver
C:Johannes Ockeghem
%%score [ 1 2 3 4 ]
L:1/8
Q:1/4=60
M:4/4
K:C
V:1 treble nm="Superius"
V:2 treble-8 nm="Altus"
V:3 bass nm="Tenor"
V:4 bass nm="Bassus"
V:1
"^T" D4 F4 | E4 D4 | A2 A4 G2 | A4 A4 | G4 F3 E | D2 C2 E2 G2 | F2 E3 D D2 | D2 C2 D2 A,2 | A4 G4 | %9
w: ky- *|rie e-|* lei- *|* son,|Ky- * *|* * rie e-|le- * * *|* * son, e-|lei- *|
 _B2 A4 d2 | c2 A4 ^G2 | !fermata!A8 || F4 E4 | D3 C B,A, A,2- | A,2 ^G,2 A,4 | z8 | z8 | z8 | %18
w: ||son|Chri- *||* * ste||||
 E4 F2 A2- | A2 G2 F2 ED | C4 z2 E2- | EF G2 A2 c2- | c2 B2 G2 z2 | A4 A2 _B2- | B2 G2 A2 F2 | %25
w: e- lei- *|* * son, _ _|_ Chri-||* * ste|e- lei- *||
 !fermata!E4 || A4- | A4 F4 | D4 G4- | G4 E4 | z2 A2 G2 F2 | A2 G E2 F ED/C/ | B,2 A,2 z4 | %33
w: son|Ky-|||* rie|e- * *|lei- * * * * * *|* son,|
 D4 C2 E2- | EF G3 A B2- | Bc d4 c2 | A2 A3 G A2 | F3 G A4 | A8 |] %39
w: e- lei- *|||son, e- * *|lei- * *|son.|
V:2
 z8 | z4 d4 | f4 e4 | d4 c2 A2 | B2 c2 d4 | z2 A2 B4 | c4 A2 a2- | ag g2 f2 e2- | ed d4 ^c2 | d8 | %10
w: |Ky-|* rie|e- lei- *|* * son,|e- lei-||||son,|
 z2 e4 e2 | !fermata!e8 || z8 | z8 | z4 c4 | d6 e2- | e2 d3 c _B2- | BA A4 G2 | A8 | c4 d4 | %20
w: e- lei-|son.|||Chri-||||ste|e- *|
 e6 c2 | d2 e2 f4 | e4 z2 f2- | f2 e2 c2 d2- | d2 c4 B2 | !fermata!c4 || c4 | A4 d4- | %28
w: lei- *|* * son,|_ e-|* * * lei-||son.|Ky-||
 d2 B2 B2 G2 | G4 B2 c2 | A d2 c cB d2- | dc B2 A2 z2 | e2 c A2 c B2 | A4 G2 A2 | G A2 B2 c2 d- | %35
w: * * rie e-|lei- * *||* * * son,|e- lei- * * *|||
 d e2 d2 gfe- | e f2 d2 ^ccB | d8- | !fermata!d8 |] %39
w: ||son.||
V:3
 z8 | z8 | z8 | z8 | z4 D,4 | F,4 E,4 | A,,4 z4 | G,4 A,4 | F,2 D,2 E,4 | D,4 F,2 G,2 | %10
w: ||||Ky-||rie-|e- *|lei- * *||
 A,2 C2 B,4 | !fermata!A,8 || D,4 C,4 | F,6 D,2 | F,2 E,2 A,,4 | _B,,4 G,,4 | %16
w: |son|Chri- *||||
 A,,2 _B,,2 G,,2 D,2- | D,2 C,2 _B,,4 | A,,4 z4 | A,,4 B,,4 | C,6 B,,A,, | G,,4 F,,4 | %22
w: ||ste|e- *|lei- * *|* son,|
 A,,3 B,, C,2 D,2- | D,2 C,2 F,4 | G,2 E,2 D,4 | !fermata!C,4 || F,4- | F,2 D,2 D,4 | G,6 E,2 | %29
w: e- * * lei-|||son.|Ky-|* * rie|_ e-|
 E,2 C,2 z2 C,2 | D,3 F, E,2 D,2 | F,2 G,2 A,4 | G,2 A,3 F, G,2 | F,2 A,2 z2 A,,2 | C,3 D, E,3 F, | %35
w: lei- son, e-|lei- * * *|||* son, e-|lei- * * *|
 G,3 F, G,2 A,2 | F,2 D,2 E,4 | D,8- | !fermata!D,8 |] %39
w: ||son.||
V:4
 z8 | z8 | z8 | D,4 F,4 | E,4 z2 D,2 | A,2 A,4 G,2 | A,4 F,2 D,2 | E,4 D,2 C,2 | D,4 z2 E,2 | %9
w: |||Ky- *|rie e-|* lei- *|||son, e-|
 F,3 E, D,2 B,,2 | A,,4 E,4 | !fermata!A,,8 || z8 | z8 | z8 | z8 | z8 | z8 | C,4 D,4 | E,4 D,4 | %20
w: lei- * * *||son.|||||||Chri- *|ste _|
 z2 G,4 A,2 | B,4 C4 | A,3 G, E,2 D,2- | D,B,, C,2 F,,2 _B,,2- | B,,2 C,2 F,4 | !fermata!G,4 || %26
w: e- *|lei- *||||son.|
 z4 | z8 | z8 | E,4 G,4 | F,4 G,2 A,2 | D,2 E, C,2 D, C,A,, | E,2 A,,2 z4 | F,4 E,2 C,2- | %34
w: |||Ky- rie|_ e- *|lei- * * * * *|* son,|e- lei- *|
 C,2 E,4 G,2 | G,,4 B,,2 A,,2- | A,,2 D,2 A,,4 | A,8- | A,8 |] %39
w: |||son.||

